X:057
T:Denis Murphy's Polka
Z:Nigel Gatherer
M:2/4
L:1/8
K:D
f/g/f/e/ D>B|AD FA|GE e>d|cB BA|f/g/f/e/ D>B|AD FA|
GE e>f|ed D2::Af f/e/f|Ag g/f/g|Af fd|
e/f/e/d/ BA|Af f/e/f|Ag gf/g/|ba ec|ed d2:|
<end>
<start>
